X: 1
T: Padraigh O'Keefe's
M: 12/8
L: 1/8
R: slide
K: Dmaj
|:f3 fed g3 g2f|eAc ecA f3 f2e|d3 dcd efg e2d|
[1cBc ABc d2a bag:|2cBc ABc d2A B2A||
|:F2A AGF G2B BAG |c3 ABc d2e f3|F2A AGF G2B BAG|
[1cBc ABc d2A BAG:|2cBc ABc d2a bag||
